Numix-Light/16/status/indicator-keyboard-Sk-4.svg

<?xml version="1.0" encoding="UTF-8" standalone="no"?>
<svg
   xmlns:dc="http://purl.org/dc/elements/1.1/"
   xmlns:cc="http://creativecommons.org/ns#"
   xmlns:rdf="http://www.w3.org/1999/02/22-rdf-syntax-ns#"
   xmlns:svg="http://www.w3.org/2000/svg"
   xmlns="http://www.w3.org/2000/svg"
   xmlns:sodipodi="http://sodipodi.sourceforge.net/DTD/sodipodi-0.dtd"
   xmlns:inkscape="http://www.inkscape.org/namespaces/inkscape"
   viewBox="0 0 16 16"
   id="svg2"
   version="1.1"
   inkscape:version="0.91 r13725"
   sodipodi:docname="indicator-keyboard-Sk-4.svg">
  <metadata
     id="metadata14">
    <rdf:RDF>
      <cc:Work
         rdf:about="">
        <dc:format>image/svg+xml</dc:format>
        <dc:type
           rdf:resource="http://purl.org/dc/dcmitype/StillImage" />
      </cc:Work>
    </rdf:RDF>
  </metadata>
  <defs
     id="defs12" />
  <sodipodi:namedview
     pagecolor="#ffffff"
     bordercolor="#666666"
     borderopacity="1"
     objecttolerance="10"
     gridtolerance="10"
     guidetolerance="10"
     inkscape:pageopacity="0"
     inkscape:pageshadow="2"
     inkscape:window-width="640"
     inkscape:window-height="480"
     id="namedview10"
     showgrid="false"
     inkscape:zoom="14.75"
     inkscape:cx="8"
     inkscape:cy="8"
     inkscape:window-x="65"
     inkscape:window-y="24"
     inkscape:window-maximized="0"
     inkscape:current-layer="svg2" />
  <path
     style="fill:#353535;fill-opacity:1"
     d="M 1.5996094 0 C 0.71320937 2.9605947e-16 0 0.71320937 0 1.5996094 L 0 14.400391 C 2.9605947e-16 15.286791 0.71320937 16 1.5996094 16 L 14.400391 16 C 15.286791 16 16 15.286791 16 14.400391 L 16 1.5996094 C 16 0.71320937 15.286791 0 14.400391 0 L 1.5996094 0 z M 7.8085938 4.1113281 L 7.8085938 8.5390625 C 7.9585938 8.3950625 8.1265 8.2309219 8.3125 8.0449219 C 8.4985 7.8589219 8.6831406 7.6705156 8.8691406 7.4785156 C 9.0611406 7.2865156 9.2421563 7.0999219 9.4101562 6.9199219 C 9.5781563 6.7399219 9.7217969 6.5813594 9.8417969 6.4433594 L 10.544922 6.4433594 C 10.406922 6.5873594 10.250172 6.7496875 10.076172 6.9296875 C 9.9021719 7.1096875 9.7193438 7.2980937 9.5273438 7.4960938 C 9.3413438 7.6880937 9.15475 7.8765 8.96875 8.0625 L 8.4648438 8.5664062 C 8.6508437 8.6924062 8.8485938 8.8547344 9.0585938 9.0527344 C 9.2745938 9.2507344 9.4854531 9.4671719 9.6894531 9.7011719 C 9.8994531 9.9291721 10.093438 10.166109 10.273438 10.412109 C 10.459437 10.652109 10.616188 10.879703 10.742188 11.095703 L 10.048828 11.095703 C 9.9048281 10.855703 9.7406875 10.622531 9.5546875 10.394531 C 9.3746875 10.160531 9.1825156 9.9403283 8.9785156 9.7363281 C 8.7805156 9.5323281 8.579 9.3476875 8.375 9.1796875 C 8.177 9.0116875 7.9885938 8.8698594 7.8085938 8.7558594 L 7.8085938 11.095703 L 7.2226562 11.095703 L 7.2226562 4.2207031 L 7.8085938 4.1113281 z M 4.2753906 4.7246094 C 4.4433906 4.7246094 4.6075313 4.7357656 4.7695312 4.7597656 C 4.9315312 4.7837656 5.0827031 4.817375 5.2207031 4.859375 C 5.3647031 4.895375 5.4934219 4.936375 5.6074219 4.984375 C 5.7274219 5.032375 5.8262969 5.0846719 5.9042969 5.1386719 L 5.6875 5.6503906 C 5.5135 5.5303906 5.3008281 5.4352813 5.0488281 5.3632812 C 4.8028281 5.2912813 4.5360469 5.2558594 4.2480469 5.2558594 C 4.0500469 5.2558594 3.8672187 5.2763594 3.6992188 5.3183594 C 3.5372187 5.3543594 3.3953906 5.4178125 3.2753906 5.5078125 C 3.1553906 5.5918125 3.0602813 5.6980781 2.9882812 5.8300781 C 2.9222812 5.9620781 2.8886719 6.1225938 2.8886719 6.3085938 C 2.8886719 6.5005938 2.9240938 6.6629219 2.9960938 6.7949219 C 3.0680938 6.9269219 3.1669687 7.0407187 3.2929688 7.1367188 C 3.4249687 7.2327187 3.5779531 7.3184844 3.7519531 7.3964844 C 3.9259531 7.4744844 4.1163125 7.556625 4.3203125 7.640625 C 4.5663125 7.742625 4.7976719 7.8433125 5.0136719 7.9453125 C 5.2356719 8.0473125 5.4258906 8.1686406 5.5878906 8.3066406 C 5.7498906 8.4446406 5.8805625 8.6125469 5.9765625 8.8105469 C 6.0725625 9.0085469 6.1191406 9.2510625 6.1191406 9.5390625 C 6.1191406 10.103063 5.9213906 10.526594 5.5253906 10.808594 C 5.1353906 11.090594 4.6055938 11.230469 3.9335938 11.230469 C 3.6935937 11.230469 3.4733906 11.215547 3.2753906 11.185547 C 3.0773906 11.155547 2.9001406 11.120125 2.7441406 11.078125 C 2.5881406 11.030125 2.4576094 10.981594 2.3496094 10.933594 C 2.2416094 10.885594 2.1576562 10.844594 2.0976562 10.808594 L 2.2949219 10.277344 C 2.3549219 10.313344 2.4351094 10.354344 2.5371094 10.402344 C 2.6391094 10.450344 2.7604375 10.498875 2.8984375 10.546875 C 3.0364375 10.588875 3.1912344 10.624297 3.3652344 10.654297 C 3.5392344 10.684297 3.7314063 10.699219 3.9414062 10.699219 C 4.4274063 10.699219 4.8061719 10.613453 5.0761719 10.439453 C 5.3461719 10.259453 5.4804687 9.970219 5.4804688 9.5742188 C 5.4804688 9.3462187 5.4357031 9.1578125 5.3457031 9.0078125 C 5.2617031 8.8518125 5.1479062 8.7230938 5.0039062 8.6210938 C 4.8599062 8.5130937 4.6957656 8.4235625 4.5097656 8.3515625 C 4.3237656 8.2735625 4.1278281 8.1914219 3.9238281 8.1074219 C 3.6658281 8.0054219 3.4344687 7.9009687 3.2304688 7.7929688 C 3.0264688 7.6849688 2.8529844 7.5655937 2.7089844 7.4335938 C 2.5649844 7.2955937 2.453 7.1388438 2.375 6.9648438 C 2.303 6.7908437 2.2675781 6.5875156 2.2675781 6.3535156 C 2.2675781 5.8195156 2.4448281 5.4146719 2.7988281 5.1386719 C 3.1528281 4.8626719 3.6453906 4.7246094 4.2753906 4.7246094 z M 13.001953 8.8417969 L 13.400391 8.8417969 L 13.400391 11.486328 L 13.902344 11.486328 L 13.902344 11.796875 L 13.400391 11.796875 L 13.400391 12.896484 L 13.025391 12.896484 L 13.025391 11.796875 L 11.189453 11.796875 L 11.189453 11.5625 C 11.259653 11.3753 11.355669 11.163687 11.480469 10.929688 C 11.609169 10.695688 11.754163 10.456637 11.914062 10.210938 C 12.073963 9.9652374 12.248348 9.7261874 12.435547 9.4921875 C 12.622747 9.2542875 12.810853 9.0367969 13.001953 8.8417969 z M 13.025391 9.2695312 C 12.888891 9.4099313 12.749775 9.5706063 12.609375 9.7539062 C 12.468975 9.9372063 12.335731 10.129225 12.207031 10.328125 C 12.082231 10.523125 11.964669 10.719069 11.855469 10.917969 C 11.746269 11.116869 11.654178 11.306928 11.580078 11.486328 L 13.025391 11.486328 L 13.025391 9.2695312 z "
     id="path4" />
</svg>

<svg xmlns="http://www.w3.org/2000/svg" viewBox="0 0 16 16">
 <path d="m 1.6 0 c -0.886 0 -1.6 0.713 -1.6 1.6 l 0 12.801 c 0 0.886 0.713 1.6 1.6 1.6 l 12.801 0 c 0.886 0 1.6 -0.713 1.6 -1.6 l 0 -12.801 c 0 -0.886 -0.713 -1.6 -1.6 -1.6 l -12.801 0 z m 6.209 4.111 l 0 4.428 c 0.15 -0.144 0.318 -0.308 0.504 -0.494 c 0.186 -0.186 0.371 -0.374 0.557 -0.566 c 0.192 -0.192 0.373 -0.379 0.541 -0.559 c 0.168 -0.18 0.312 -0.339 0.432 -0.477 l 0.703 0 c -0.138 0.144 -0.295 0.306 -0.469 0.486 c -0.174 0.18 -0.357 0.368 -0.549 0.566 c -0.186 0.192 -0.373 0.38 -0.559 0.566 l -0.504 0.504 c 0.186 0.126 0.384 0.288 0.594 0.486 c 0.216 0.198 0.427 0.414 0.631 0.648 c 0.21 0.228 0.404 0.465 0.584 0.711 c 0.186 0.24 0.343 0.468 0.469 0.684 l -0.693 0 c -0.144 -0.24 -0.308 -0.473 -0.494 -0.701 c -0.18 -0.234 -0.372 -0.454 -0.576 -0.658 c -0.198 -0.204 -0.4 -0.389 -0.604 -0.557 c -0.198 -0.168 -0.386 -0.31 -0.566 -0.424 l 0 2.34 l -0.586 0 l 0 -6.875 l 0.586 -0.109 z m -3.533 0.613 c 0.168 0 0.332 0.011 0.494 0.035 c 0.162 0.024 0.313 0.058 0.451 0.1 c 0.144 0.036 0.273 0.077 0.387 0.125 c 0.12 0.048 0.219 0.1 0.297 0.154 l -0.217 0.512 c -0.174 -0.12 -0.387 -0.215 -0.639 -0.287 c -0.246 -0.072 -0.513 -0.107 -0.801 -0.107 c -0.198 0 -0.381 0.02 -0.549 0.063 c -0.162 0.036 -0.304 0.099 -0.424 0.189 c -0.12 0.084 -0.215 0.19 -0.287 0.322 c -0.066 0.132 -0.1 0.293 -0.1 0.479 c 0 0.192 0.035 0.354 0.107 0.486 c 0.072 0.132 0.171 0.246 0.297 0.342 c 0.132 0.096 0.285 0.182 0.459 0.26 c 0.174 0.078 0.364 0.16 0.568 0.244 c 0.246 0.102 0.477 0.203 0.693 0.305 c 0.222 0.102 0.412 0.223 0.574 0.361 c 0.162 0.138 0.293 0.306 0.389 0.504 c 0.096 0.198 0.143 0.441 0.143 0.729 c 0 0.564 -0.198 0.988 -0.594 1.27 c -0.39 0.282 -0.92 0.422 -1.592 0.422 c -0.24 0 -0.46 -0.015 -0.658 -0.045 c -0.198 -0.03 -0.375 -0.065 -0.531 -0.107 c -0.156 -0.048 -0.287 -0.097 -0.395 -0.145 c -0.108 -0.048 -0.192 -0.089 -0.252 -0.125 l 0.197 -0.531 c 0.06 0.036 0.14 0.077 0.242 0.125 c 0.102 0.048 0.223 0.097 0.361 0.145 c 0.138 0.042 0.293 0.077 0.467 0.107 c 0.174 0.03 0.366 0.045 0.576 0.045 c 0.486 0 0.865 -0.086 1.135 -0.26 c 0.27 -0.18 0.404 -0.469 0.404 -0.865 c 0 -0.228 -0.045 -0.416 -0.135 -0.566 c -0.084 -0.156 -0.198 -0.285 -0.342 -0.387 c -0.144 -0.108 -0.308 -0.198 -0.494 -0.27 c -0.186 -0.078 -0.382 -0.16 -0.586 -0.244 c -0.258 -0.102 -0.489 -0.206 -0.693 -0.314 c -0.204 -0.108 -0.377 -0.227 -0.521 -0.359 c -0.144 -0.138 -0.256 -0.295 -0.334 -0.469 c -0.072 -0.174 -0.107 -0.377 -0.107 -0.611 c 0 -0.534 0.177 -0.939 0.531 -1.215 c 0.354 -0.276 0.847 -0.414 1.477 -0.414 z m 8.727 4.117 l 0.398 0 l 0 2.645 l 0.502 0 l 0 0.311 l -0.502 0 l 0 1.1 l -0.375 0 l 0 -1.1 l -1.836 0 l 0 -0.234 c 0.07 -0.187 0.166 -0.399 0.291 -0.633 c 0.129 -0.234 0.274 -0.473 0.434 -0.719 c 0.16 -0.246 0.334 -0.485 0.521 -0.719 c 0.187 -0.238 0.375 -0.455 0.566 -0.65 z m 0.023 0.428 c -0.137 0.14 -0.276 0.301 -0.416 0.484 c -0.14 0.183 -0.274 0.375 -0.402 0.574 c -0.125 0.195 -0.242 0.391 -0.352 0.59 c -0.109 0.199 -0.201 0.389 -0.275 0.568 l 1.445 0 l 0 -2.217 z" style="fill:#353535;fill-opacity:1"/>
</svg>
